X:180
T:ROND BALANCE DE DOL
Z: Yves BELOTTEAU
M:2/4
L:1/16
Q:1/4=60
K:G
|DDG3/2 z/2 B3/2 z/2 GG|DDG3/2 z/2 B3/2 z/2 GG|
DDG3/2 z/2 B3/2 z/2 G3/2 z/2 |DDG3/2 z/2 B3/2 z/2 GG|
DDG3/2 z/2 B3/2 z/2 GG|DDG3/2 z/2 B3/2 z/2 G3/2 z/2 |AAA3/2 z/2 B3/2 z/2
 cB|AGF3/2 z/2 E3/2 z/2 D3/2 z/2 |
DGGG/2G/2 GBB3/2 z/2 |AAAc/2A/2 G2G3/2|
